frontend/src/assets/icons/message-text-square-01.svg

<svg width="24" height="24" viewBox="0 0 24 24" fill="none" xmlns="http://www.w3.org/2000/svg">
<g id="message-text-square-01">
<path id="Icon" d="M7 8.5H12M7 12H15M9.68375 18H16.2C17.8802 18 18.7202 18 19.362 17.673C19.9265 17.3854 20.3854 16.9265 20.673 16.362C21 15.7202 21 14.8802 21 13.2V7.8C21 6.11984 21 5.27976 20.673 4.63803C20.3854 4.07354 19.9265 3.6146 19.362 3.32698C18.7202 3 17.8802 3 16.2 3H7.8C6.11984 3 5.27976 3 4.63803 3.32698C4.07354 3.6146 3.6146 4.07354 3.32698 4.63803C3 5.27976 3 6.11984 3 7.8V20.3355C3 20.8684 3 21.1348 3.10923 21.2716C3.20422 21.3906 3.34827 21.4599 3.50054 21.4597C3.67563 21.4595 3.88367 21.2931 4.29976 20.9602L6.68521 19.0518C7.17252 18.662 7.41617 18.4671 7.68749 18.3285C7.9282 18.2055 8.18443 18.1156 8.44921 18.0613C8.74767 18 9.0597 18 9.68375 18Z" stroke="black" stroke-width="2" stroke-linecap="round" stroke-linejoin="round"/>
</g>
</svg>

<svg xmlns="http://www.w3.org/2000/svg" width="24" height="24" fill="none" viewBox="0 0 24 24">
  <path stroke="#000" stroke-linecap="round" stroke-linejoin="round" stroke-width="2" d="M7 8.5h5M7 12h8m-5.316 6H16.2c1.68 0 2.52 0 3.162-.327a3 3 0 0 0 1.311-1.311C21 15.72 21 14.88 21 13.2V7.8c0-1.68 0-2.52-.327-3.162a3 3 0 0 0-1.311-1.311C18.72 3 17.88 3 16.2 3H7.8c-1.68 0-2.52 0-3.162.327a3 3 0 0 0-1.311 1.311C3 5.28 3 6.12 3 7.8v12.535c0 .533 0 .8.11.937a.5.5 0 0 0 .39.188c.176 0 .384-.167.8-.5l2.385-1.908c.488-.39.731-.585 1.002-.724.241-.122.497-.212.762-.267C8.748 18 9.06 18 9.684 18Z"/>
</svg>
